lib/icons/fullscreen.svg

<svg width="14" height="14" viewBox="0 0 14 14" fill="none" xmlns="http://www.w3.org/2000/svg">
<path fill-rule="evenodd" clip-rule="evenodd" d="M3.5 0.5C3.5 0.223858 3.27614 0 3 0H0.5C0.223857 0 0 0.223858 0 0.5V3C0 3.27614 0.223857 3.5 0.5 3.5C0.776143 3.5 1 3.27614 1 3V1.70711L4.64645 5.35355C4.84171 5.54882 5.15829 5.54882 5.35355 5.35355C5.54882 5.15829 5.54882 4.84171 5.35355 4.64645L1.70711 1H3C3.27614 1 3.5 0.776142 3.5 0.5ZM3 14C3.27614 14 3.5 13.7761 3.5 13.5C3.5 13.2239 3.27614 13 3 13H1.70711L5.35355 9.35355C5.54882 9.15829 5.54882 8.84171 5.35355 8.64645C5.15829 8.45118 4.84171 8.45118 4.64645 8.64645L1 12.2929L1 11C1 10.7239 0.776142 10.5 0.5 10.5C0.223857 10.5 0 10.7239 0 11V13.5C0 13.7761 0.223857 14 0.5 14H3ZM11 14C10.7239 14 10.5 13.7761 10.5 13.5C10.5 13.2239 10.7239 13 11 13H12.2929L8.64645 9.35355C8.45118 9.15829 8.45118 8.84171 8.64645 8.64645C8.84171 8.45118 9.15829 8.45118 9.35355 8.64645L13 12.2929V11C13 10.7239 13.2239 10.5 13.5 10.5C13.7761 10.5 14 10.7239 14 11V13.5C14 13.7761 13.7761 14 13.5 14H11ZM11 0C10.7239 0 10.5 0.223858 10.5 0.5C10.5 0.776142 10.7239 1 11 1H12.2929L8.64645 4.64645C8.45118 4.84171 8.45118 5.15829 8.64645 5.35355C8.84171 5.54882 9.15829 5.54882 9.35355 5.35355L13 1.70711V3C13 3.27614 13.2239 3.5 13.5 3.5C13.7761 3.5 14 3.27614 14 3V0.5C14 0.223858 13.7761 0 13.5 0H11Z" fill="#7A859E"/>
</svg>

<svg width="14" height="14" fill="none" xmlns="http://www.w3.org/2000/svg"><path fill-rule="evenodd" clip-rule="evenodd" d="M3.5.5A.5.5 0 0 0 3 0H.5a.5.5 0 0 0-.5.5V3a.5.5 0 0 0 1 0V1.707l3.646 3.647a.5.5 0 1 0 .708-.708L1.707 1H3a.5.5 0 0 0 .5-.5ZM3 14a.5.5 0 0 0 0-1H1.707l3.647-3.646a.5.5 0 1 0-.708-.708L1 12.293V11a.5.5 0 0 0-1 0v2.5a.5.5 0 0 0 .5.5H3Zm8 0a.5.5 0 0 1 0-1h1.293L8.646 9.354a.5.5 0 1 1 .708-.708L13 12.293V11a.5.5 0 0 1 1 0v2.5a.5.5 0 0 1-.5.5H11Zm0-14a.5.5 0 0 0 0 1h1.293L8.646 4.646a.5.5 0 1 0 .708.708L13 1.707V3a.5.5 0 0 0 1 0V.5a.5.5 0 0 0-.5-.5H11Z" fill="#7A859E"/></svg>
